X: 247
T:O bone et dulcissime Jesu / Si ego commissi
N: Derived from Jos2109-O_bone_et_dulcissime_Jesu.krn
C: Josquin des Prez
%%abc-version 2.0
%%abcx-abcm2ps-target-version 5.9.1 (29 Sep 2008)
%%abc-creator hum2abc beta
%%abcx-conversion-date 2019/02/12 16:15:51
%%abc-edited-by Jesse Rodin
%%abc-edited-by Will Watson 22/07/2011
%%abcx-initial-encoding-date 2011/07/22/
%%humdrum-veritas 1149411181
%%humdrum-veritas-data 585606686
%%linebreak <none>
%%barnumbers 0
L: 1/4
M: 2/1
Q: 1/2=120
%%staves [1 2 3 4]
V: 1 clef=treble
V: 2 clef=treble-8
V: 3 clef=treble-8
V: 4 clef=bass
K: C
[V:1] D8 | 
[V:2] z8 | 
[V:3] z8 | 
[V:4] z8 | 
[V:1] A8 | 
[V:2] z8 | 
[V:3] z8 | 
[V:4] z8 | 
[V:1] A8 | 
[V:2] A8 | 
[V:3] z8 | 
[V:4] z8 | 
[V:1] G8 | 
[V:2] e8 | 
[V:3] z8 | 
[V:4] z8 | 
[V:1] z4c4- | 
[V:2] e8 | 
[V:3] z8 | 
[V:4] z8 | 
[V:1] c4B4 | 
[V:2] d8 | 
[V:3] z8 | 
[V:4] z8 | 
[V:1] A4G4 | 
[V:2] z4g4- | 
[V:3] z8 | 
[V:4] z8 | 
[V:1] A8 | 
[V:2] g4f4 | 
[V:3] z8 | 
[V:4] z8 | 
[V:1] G4F4 | 
[V:2] e4d4 | 
[V:3] z8 | 
[V:4] z8 | 
[V:1] G8 | 
[V:2] e8 | 
[V:3] z8 | 
[V:4] z8 | 
[V:1] F4z2A2- | 
[V:2] d4c4 | 
[V:3] z8 | 
[V:4] z8 | 
[V:1] AGFEF4 | 
[V:2] d8 | 
[V:3] D8 | 
[V:4] z8 | 
[V:1] E8- | 
[V:2] c8- | 
[V:3] A8 | 
[V:4] z8 | 
[V:1] E8 | 
[V:2] c8 | 
[V:3] A8 | 
[V:4] A,,8 | 
[V:1] z8 | 
[V:2] z8 | 
[V:3] G8 | 
[V:4] E,8 | 
[V:1] z8 | 
[V:2] z8 | 
[V:3] z4c4- | 
[V:4] E,8 | 
[V:1] z8 | 
[V:2] z8 | 
[V:3] c4B4 | 
[V:4] D,8 | 
[V:1] z8 | 
[V:2] z8 | 
[V:3] A4G4 | 
[V:4] z4G,4- | 
[V:1] z8 | 
[V:2] z8 | 
[V:3] A8 | 
[V:4] G,4F,4 | 
[V:1] z8 | 
[V:2] z8 | 
[V:3] G4F4 | 
[V:4] E,4D,4 | 
[V:1] z8 | 
[V:2] z8 | 
[V:3] G8 | 
[V:4] E,8 | 
[V:1] z8 | 
[V:2] z8 | 
[V:3] F3GABc2- | 
[V:4] D,4C,4 | 
[V:1] F8 | 
[V:2] F8 | 
[V:3] c2BAB3A | 
[V:4] D,8 | 
[V:1] E8- | 
[V:2] G8- | 
[V:3] c8- | 
[V:4] C,8- | 
[V:1] E8 | 
[V:2] G8 | 
[V:3] c8 | 
[V:4] C,8 | 
[V:1] z8 | 
[V:2] A8 | 
[V:3] z8 | 
[V:4] z4A,,4- | 
[V:1] E8 | 
[V:2] A4c4- | 
[V:3] z4E4- | 
[V:4] A,,4A,,4 | 
[V:1] E4G4- | 
[V:2] c4c4 | 
[V:3] E4E4 | 
[V:4] C,8 | 
[V:1] G4G4 | 
[V:2] e8 | 
[V:3] G8 | 
[V:4] C,4E,4- | 
[V:1] B8 | 
[V:2] e4g4- | 
[V:3] G4B4- | 
[V:4] E,4E,4 | 
[V:1] B4d4- | 
[V:2] g4g4 | 
[V:3] B4B4 | 
[V:4] G,8 | 
[V:1] d4d4 | 
[V:2] d4z4 | 
[V:3] d8 | 
[V:4] G,4D,4- | 
[V:1] A8 | 
[V:2] f8 | 
[V:3] d4A4- | 
[V:4] D,4z4 | 
[V:1] z4c4- | 
[V:2] f4f4- | 
[V:3] A4z4 | 
[V:4] F,8 | 
[V:1] c4c4 | 
[V:2] f4f4 | 
[V:3] c8 | 
[V:4] F,4F,4- | 
[V:1] c8 | 
[V:2] c6d2 | 
[V:3] c4c4- | 
[V:4] F,4F,4 | 
[V:1] c8 | 
[V:2] !fermata!e8- | 
[V:3] c4c4 | 
[V:4] C,6D,2 | 
[V:1] B6G2 | 
[V:2] e8- | 
[V:3] G6A2 | 
[V:4] !fermata!E,8- | 
[V:1] !fermata!G8 | 
[V:2] e8 | 
[V:3] !fermata!B8 | 
[V:4] E,8 | 
[V:1] G8 | 
[V:2] e8 | 
[V:3] z8 | 
[V:4] z8 | 
[V:1] G4A4- | 
[V:2] e4f4- | 
[V:3] z8 | 
[V:4] z8 | 
[V:1] A4G4 | 
[V:2] f4e4 | 
[V:3] z8 | 
[V:4] z8 | 
[V:1] z8 | 
[V:2] z8 | 
[V:3] G3AB2c2- | 
[V:4] E,8 | 
[V:1] z8 | 
[V:2] z8 | 
[V:3] cBe4dc | 
[V:4] E,4F,4- | 
[V:1] z4z2G2- | 
[V:2] z8 | 
[V:3] d4e4 | 
[V:4] F,4E,4 | 
[V:1] G2A4B2- | 
[V:2] c4d4 | 
[V:3] z8 | 
[V:4] z8 | 
[V:1] B2c3BAG | 
[V:2] e4f4- | 
[V:3] z8 | 
[V:4] z8 | 
[V:1] A4G4 | 
[V:2] f4e4 | 
[V:3] z4c4 | 
[V:4] z4C,4 | 
[V:1] z8 | 
[V:2] z8 | 
[V:3] A2B3ABc | 
[V:4] D,4E,4 | 
[V:1] z8 | 
[V:2] z8 | 
[V:3] d2e4d2 | 
[V:4] F,8 | 
[V:1] z4E4 | 
[V:2] z2G4A2- | 
[V:3] e8 | 
[V:4] E,4C,4 | 
[V:1] F4G4 | 
[V:2] A2B4c2- | 
[V:3] z4e4 | 
[V:4] D,4E,4 | 
[V:1] A8 | 
[V:2] cBAGA4 | 
[V:3] c4d4 | 
[V:4] F,8 | 
[V:1] G3AB2c2 | 
[V:2] B4z2g2- | 
[V:3] e2g3fed | 
[V:4] E,8- | 
[V:1] B2A4^G2 | 
[V:2] gfede4 | 
[V:3] e2c2B4 | 
[V:4] E,8 | 
[V:1] A8- | 
[V:2] c8 | 
[V:3] A8- | 
[V:4] z4A,,4- | 
[V:1] A8 | 
[V:2] z4A4- | 
[V:3] A8 | 
[V:4] A,,2B,,2C,4 | 
[V:1] z8 | 
[V:2] A2B2c4 | 
[V:3] z8 | 
[V:4] D,4A,,4 | 
[V:1] z8 | 
[V:2] d4A4 | 
[V:3] z8 | 
[V:4] F,6F,2 | 
[V:1] z8 | 
[V:2] z4c4- | 
[V:3] z8 | 
[V:4] F,2F,2E,3D, | 
[V:1] z8 | 
[V:2] c2c2d2d2 | 
[V:3] z8 | 
[V:4] E,2F,4E,D, | 
[V:1] z8 | 
[V:2] e3de2f2- | 
[V:3] z8 | 
[V:4] C,4z4 | 
[V:1] z8 | 
[V:2] f2edc4 | 
[V:3] z8 | 
[V:4] D,4E,4 | 
[V:1] z8 | 
[V:2] z4d4 | 
[V:3] z8 | 
[V:4] F,3E,F,2G,2- | 
[V:1] z8 | 
[V:2] e4f3d | 
[V:3] z8 | 
[V:4] G,2F,E,D,4 | 
[V:1] z8 | 
[V:2] e4d4 | 
[V:3] z8 | 
[V:4] z4G,4- | 
[V:1] z8 | 
[V:2] g6f2 | 
[V:3] z8 | 
[V:4] G,2F,2E,2D,2 | 
[V:1] z8 | 
[V:2] e2d2c3A | 
[V:3] z8 | 
[V:4] C,2F,3E,A,2- | 
[V:1] z8 | 
[V:2] B4A4 | 
[V:3] z8 | 
[V:4] A,^G,G,^F,A,4 | 
[V:1] E3FG2A2- | 
[V:2] z8 | 
[V:3] c6A2 | 
[V:4] z8 | 
[V:1] A^GG^FA4 | 
[V:2] z8 | 
[V:3] B4A4 | 
[V:4] z8 | 
[V:1] z8 | 
[V:2] A3Bc2d2- | 
[V:3] z8 | 
[V:4] F,6D,2 | 
[V:1] z8 | 
[V:2] d^c^cBd4 | 
[V:3] z8 | 
[V:4] E,4D,4 | 
[V:1] z4A4 | 
[V:2] d4f4- | 
[V:3] z8 | 
[V:4] z8 | 
[V:1] c6c2 | 
[V:2] f2f2f4 | 
[V:3] z8 | 
[V:4] z8 | 
[V:1] c4B4 | 
[V:2] e4d3c | 
[V:3] z8 | 
[V:4] z8 | 
[V:1] A3GA2G2- | 
[V:2] d2c4BA | 
[V:3] z8 | 
[V:4] z8 | 
[V:1] G2FED4 | 
[V:2] G8 | 
[V:3] z4B4 | 
[V:4] E,4G,4- | 
[V:1] z8 | 
[V:2] z8 | 
[V:3] d6d2 | 
[V:4] G,2G,2G,4 | 
[V:1] z8 | 
[V:2] z8 | 
[V:3] d4c4 | 
[V:4] F,4E,3D, | 
[V:1] z8 | 
[V:2] z8 | 
[V:3] B3AB2A2- | 
[V:4] E,2D,4C,B,, | 
[V:1] z8 | 
[V:2] c6d2 | 
[V:3] A2GFE4 | 
[V:4] A,,4C,4- | 
[V:1] G6A2 | 
[V:2] e2f2g4- | 
[V:3] z4G4- | 
[V:4] C,2D,2E,2F,2 | 
[V:1] B2c2d4- | 
[V:2] g2f2d3e | 
[V:3] G2A2B2c2 | 
[V:4] G,6F,2 | 
[V:1] d2c2A2B2- | 
[V:2] f3ga2g2- | 
[V:3] d2f3edc | 
[V:4] D,3E,F,2G,2- | 
[V:1] BAd3^ccB | 
[V:2] g2a3ge2 | 
[V:3] d3fe4 | 
[V:4] G,F,D,2A,4 | 
[V:1] d4z4 | 
[V:2] f4z4 | 
[V:3] d8 | 
[V:4] D,8 | 
[V:1] [M:3/1]A4A4A4 | 
[V:2] [M:3/1]f4f4f4 | 
[V:3] [M:3/1]z12 | 
[V:4] [M:3/1]F,4F,4F,4 | 
[V:1] A4A4A4 | 
[V:2] f4f4f4 | 
[V:3] c4c4c4 | 
[V:4] F,4F,4F,4 | 
[V:1] A4A4A4 | 
[V:2] f4f4f4 | 
[V:3] c4c4c4 | 
[V:4] F,4F,4F,4 | 
[V:1] [M:2/1]G8 | 
[V:2] [M:2/1]e8 | 
[V:3] [M:2/1]c2c2c4 | 
[V:4] [M:2/1]C,8- | 
[V:1] z4G4 | 
[V:2] z4e4 | 
[V:3] c8 | 
[V:4] C,8 | 
[V:1] A4G4 | 
[V:2] A4e4 | 
[V:3] z4c4 | 
[V:4] z4C,4 | 
[V:1] z4z2E2 | 
[V:2] z4z2c2 | 
[V:3] F4c4 | 
[V:4] D,4C,4 | 
[V:1] F2E2F4 | 
[V:2] d2c2d4 | 
[V:3] z8 | 
[V:4] z8 | 
[V:1] E4z4 | 
[V:2] c4z4 | 
[V:3] z2c2d2c2 | 
[V:4] z2A,2B,2A,2 | 
[V:1] z2D2E2F2 | 
[V:2] z4z2A2 | 
[V:3] d4c4 | 
[V:4] B,4A,4 | 
[V:1] G2A3GFE | 
[V:2] B2c2F2f2- | 
[V:3] z8 | 
[V:4] z8 | 
[V:1] D3FE4 | 
[V:2] fed3^c^cB | 
[V:3] z8 | 
[V:4] z8 | 
[V:1] D4z4 | 
[V:2] d4z4 | 
[V:3] z4z2A2 | 
[V:4] z2D,2E,2F,2 | 
[V:1] z8 | 
[V:2] z8 | 
[V:3] B2c2F2f2- | 
[V:4] G,2A,3G,F,E, | 
[V:1] z8 | 
[V:2] z8 | 
[V:3] fed3^c^cB | 
[V:4] D,3F,E,4 | 
[V:1] z8 | 
[V:2] z8 | 
[V:3] d8 | 
[V:4] D,4z4 | 
[V:1] z8 | 
[V:2] [M:3/3](3d4d4d4 | 
[V:3] z8 | 
[V:4] [M:3/3](3D,4F,4G,4 | 
[V:1] z8 | 
[V:2] (3:2:2c4f8 | 
[V:3] z8 | 
[V:4] (3A,4D,4A,4- | 
[V:1] z8 | 
[V:2] (3:2:2e4d8 | 
[V:3] z8 | 
[V:4] (3:2:2A,4B,8 | 
[V:1] [M:3/3](3A4A4A4 | 
[V:2] [M:2/1]c4z4 | 
[V:3] [M:3/3](3A4c4d4 | 
[V:4] [M:2/1]A,4z4 | 
[V:1] (3:2:2G4c8 | 
[V:2] z8 | 
[V:3] (3e4A4e4- | 
[V:4] z8 | 
[V:1] (3:2:2B4A8 | 
[V:2] z8 | 
[V:3] (3:2:2e4f8 | 
[V:4] z8 | 
[V:1] [M:2/1]G8 | 
[V:2] z4c4 | 
[V:3] [M:2/1]e8- | 
[V:4] z8 | 
[V:1] z4G4 | 
[V:2] c2c2c2c2 | 
[V:3] e8 | 
[V:4] z8 | 
[V:1] G2G2G2G2 | 
[V:2] G4B4- | 
[V:3] z8 | 
[V:4] z4G,4 | 
[V:1] D4G4 | 
[V:2] B2B2B4 | 
[V:3] z4d4 | 
[V:4] G,2G,2G,2G,2 | 
[V:1] F4D4 | 
[V:2] A4z2B2 | 
[V:3] d2d2d2d2 | 
[V:4] D,4G,4 | 
[V:1] A3GA3B | 
[V:2] c2d3efd | 
[V:3] A4d4 | 
[V:4] F,4D,4 | 
[V:1] cdc4BA | 
[V:2] e8- | 
[V:3] c2A2c4 | 
[V:4] A,8 | 
[V:1] G8 | 
[V:2] e8 | 
[V:3] B4z2e2- | 
[V:4] E,8- | 
[V:1] z8 | 
[V:2] g4g4 | 
[V:3] edB2c4 | 
[V:4] E,8 | 
[V:1] z8 | 
[V:2] g2g2g4 | 
[V:3] B8- | 
[V:4] G,4G,4 | 
[V:1] d4d4 | 
[V:2] d4g4 | 
[V:3] B8 | 
[V:4] G,2G,2G,4 | 
[V:1] d2d2d4 | 
[V:2] f4d4 | 
[V:3] d4d4 | 
[V:4] D,4G,4 | 
[V:1] A4d4 | 
[V:2] f8 | 
[V:3] d2d2d4 | 
[V:4] F,4D,4 | 
[V:1] c2A2c4 | 
[V:2] e4z4 | 
[V:3] A4e4- | 
[V:4] A,8 | 
[V:1] B8 | 
[V:2] g4g4 | 
[V:3] e2e2e4 | 
[V:4] E,4z4 | 
[V:1] z8 | 
[V:2] g2g2g4 | 
[V:3] B8- | 
[V:4] G,4G,4 | 
[V:1] d4d4 | 
[V:2] d4g4 | 
[V:3] B8 | 
[V:4] G,2G,2G,4 | 
[V:1] d2d2d4 | 
[V:2] f4d4 | 
[V:3] d4d4 | 
[V:4] D,4G,4 | 
[V:1] A4d4 | 
[V:2] f8 | 
[V:3] d2d2d4 | 
[V:4] F,4D,4 | 
[V:1] c3BA4 | 
[V:2] e8- | 
[V:3] A4c4- | 
[V:4] A,8 | 
[V:1] G8- | 
[V:2] e8- | 
[V:3] c2B2c4 | 
[V:4] E,8- | 
[V:1] G8 ||  
[V:2] e8 ||  
[V:3] B8 ||  
[V:4] E,8 ||  
[V:1] [M:2/1]z8 | 
[V:2] [M:2/1]z8 | 
[V:3] [M:2/1]A8 | 
[V:4] [M:2/1]z8 | 
[V:1] A8 | 
[V:2] z8 | 
[V:3] A4A4 | 
[V:4] z8 | 
[V:1] A4A4 | 
[V:2] z8 | 
[V:3] d6d2 | 
[V:4] D,8 | 
[V:1] d6d2 | 
[V:2] d8 | 
[V:3] d4d4 | 
[V:4] D,4D,4 | 
[V:1] d4d4 | 
[V:2] d4d4 | 
[V:3] d4d4 | 
[V:4] G,6G,2 | 
[V:1] d4d4 | 
[V:2] g6g2 | 
[V:3] B6G2 | 
[V:4] G,8 | 
[V:1] B6G2 | 
[V:2] g8 | 
[V:3] G6AB | 
[V:4] z8 | 
[V:1] G3ABcd2- | 
[V:2] z8 | 
[V:3] c2G2g3f | 
[V:4] z4G,4 | 
[V:1] dcc4B2 | 
[V:2] z4g4 | 
[V:3] g2e2d4 | 
[V:4] G,4G,4 | 
[V:1] c8 | 
[V:2] g4g4 | 
[V:3] c8- | 
[V:4] E,6C,2 | 
[V:1] z8 | 
[V:2] e6c2 | 
[V:3] c8 | 
[V:4] C,6D,E, | 
[V:1] z8 | 
[V:2] c3defg2- | 
[V:3] z8 | 
[V:4] F,2C,2C3B, | 
[V:1] z8 | 
[V:2] gff4e2 | 
[V:3] z8 | 
[V:4] C2A,2G,4 | 
[V:1] z8 | 
[V:2] f8 | 
[V:3] z4c4- | 
[V:4] F,8 | 
[V:1] c6B2 | 
[V:2] z8 | 
[V:3] c2B2A2G2 | 
[V:4] z8 | 
[V:1] A2G2F4 | 
[V:2] z8 | 
[V:3] c3ed4 | 
[V:4] z8 | 
[V:1] E8 | 
[V:2] g6f2 | 
[V:3] c8 | 
[V:4] z4C4- | 
[V:1] z8 | 
[V:2] e2d2cBe2- | 
[V:3] z8 | 
[V:4] C2B,2A,2G,2 | 
[V:1] z8 | 
[V:2] eddce4 | 
[V:3] z8 | 
[V:4] F,4E,4 | 
[V:1] G4G4 | 
[V:2] z4e4 | 
[V:3] z4c4 | 
[V:4] z4C,4 | 
[V:1] G4c4- | 
[V:2] e4e4 | 
[V:3] c4c4 | 
[V:4] C,4C,4 | 
[V:1] c2B2A2G2 | 
[V:2] c3df2e2- | 
[V:3] A4c3B | 
[V:4] F,6C,2 | 
[V:1] F2D2E4 | 
[V:2] edd2^c2d^c | 
[V:3] A2G2A4 | 
[V:4] D,2B,,2A,,4 | 
[V:1] D4z4 | 
[V:2] d8 | 
[V:3] F8 | 
[V:4] D,8 | 
[V:1] G4G4 | 
[V:2] z4e4 | 
[V:3] z4c4 | 
[V:4] z4C,4 | 
[V:1] G4c4- | 
[V:2] e4e4 | 
[V:3] c4c4 | 
[V:4] C,4C,4 | 
[V:1] c2B2A2G2 | 
[V:2] c3df2e2- | 
[V:3] A4c3B | 
[V:4] F,6C,2 | 
[V:1] F2D2E4 | 
[V:2] edd2^c2d^c | 
[V:3] A2G2A4 | 
[V:4] D,2B,,2A,,4 | 
[V:1] D4z4 | 
[V:2] d4z4 | 
[V:3] F3DD4 | 
[V:4] D,4z4 | 
[V:1] [M:3/1]A8A4 | 
[V:2] [M:3/1]f8f4 | 
[V:3] [M:3/1]z4d8 | 
[V:4] [M:3/1]D,8D,4 | 
[V:1] A4B6G2 | 
[V:2] f4g6e2 | 
[V:3] d4d4e4- | 
[V:4] D,4G,6C,2 | 
[V:1] G8G4 | 
[V:2] e8e4 | 
[V:3] e2c2c8 | 
[V:4] C,8C,4 | 
[V:1] A4B4c4- | 
[V:2] f8e4 | 
[V:3] c4d4e4 | 
[V:4] F,4D,4A,4- | 
[V:1] c4B8 | 
[V:2] c4d6e2 | 
[V:3] A4B8 | 
[V:4] A,4G,8 | 
[V:1] A8A4 | 
[V:2] f8f4 | 
[V:3] c4A4d4- | 
[V:4] F,8D,4 | 
[V:1] _B8A4 | 
[V:2] d4_e6d2 | 
[V:3] d4G4A4 | 
[V:4] G,8F,4 | 
[V:1] F4G8 | 
[V:2] d6_B2c4 | 
[V:3] _B4G6A2 | 
[V:4] D,4_E,6D,2 | 
[V:1] [M:2/1]F8 | 
[V:2] [M:2/1]d8- | 
[V:3] [M:2/1]_B6AG | 
[V:4] [M:2/1]_B,,8- | 
[V:1] z8 | 
[V:2] d8 | 
[V:3] F2G2D4 | 
[V:4] B,,8 | 
[V:1] D6E2 | 
[V:2] z8 | 
[V:3] z4D4- | 
[V:4] z8 | 
[V:1] F2G2A2B2 | 
[V:2] z8 | 
[V:3] D2E2F2G2 | 
[V:4] z8 | 
[V:1] c4c4 | 
[V:2] A6B2 | 
[V:3] A2B2c2c2 | 
[V:4] z4A,,4- | 
[V:1] c4c4 | 
[V:2] c2d2e2f2 | 
[V:3] c2c2c2c2 | 
[V:4] A,,2B,,2C,2D,2 | 
[V:1] B6B2 | 
[V:2] g2g2g2g2 | 
[V:3] G8 | 
[V:4] E,2F,2G,2G,2 | 
[V:1] B4B4 | 
[V:2] g2g2d4 | 
[V:3] z4G4 | 
[V:4] G,2G,2G,2G,2 | 
[V:1] A4A4 | 
[V:2] d4f4- | 
[V:3] d4d4 | 
[V:4] D,4z2D,2 | 
[V:1] A6B2 | 
[V:2] f2f2f2f2 | 
[V:3] d6d2 | 
[V:4] D,3E,F,2G,2 | 
[V:1] c4A4 | 
[V:2] edcBc2dc | 
[V:3] c2A3GF2- | 
[V:4] A,3G,F,E,D,2- | 
[V:1] d8 | 
[V:2] BAA4^G2 | 
[V:3] F2E2D4 | 
[V:4] D,2C,2B,,4 | 
[V:1] c8 | 
[V:2] A8- | 
[V:3] E8 | 
[V:4] A,,8 | 
[V:1] z4A4- | 
[V:2] A8 | 
[V:3] z8 | 
[V:4] z8 | 
[V:1] A4F4 | 
[V:2] d8 | 
[V:3] z8 | 
[V:4] z8 | 
[V:1] G6E2 | 
[V:2] B4c4- | 
[V:3] z4e4- | 
[V:4] z8 | 
[V:1] E8 | 
[V:2] c2A2A4 | 
[V:3] e4c4 | 
[V:4] A,8 | 
[V:1] z8 | 
[V:2] z8 | 
[V:3] d6B2 | 
[V:4] F,4G,4- | 
[V:1] G6G2 | 
[V:2] z8 | 
[V:3] B4B3B | 
[V:4] G,2E,2E,4 | 
[V:1] G2G2G4- | 
[V:2] z8 | 
[V:3] B2B2G3E | 
[V:4] E,6E,2 | 
[V:1] G2E2E4 | 
[V:2] e6e2 | 
[V:3] E4z4 | 
[V:4] E,2E,2C,3A,, | 
[V:1] c6c2 | 
[V:2] e2e2c3A | 
[V:3] e3ee2e2 | 
[V:4] A,,4A,4- | 
[V:1] c2c2c3A | 
[V:2] A4z4 | 
[V:3] c3AA4 | 
[V:4] A,2A,2A,2A,2 | 
[V:1] A8- | 
[V:2] f6f2 | 
[V:3] z4d4 | 
[V:4] F,3D,D,4- | 
[V:1] A8 | 
[V:2] f2f2f3d | 
[V:3] d2d2d4- | 
[V:4] D,4D,4 | 
[V:1] z8 | 
[V:2] d4z2d2 | 
[V:3] d4B4 | 
[V:4] G,2G,2G,4 | 
[V:1] z4A4 | 
[V:2] f2f2f4 | 
[V:3] c4d4- | 
[V:4] F,4D,4 | 
[V:1] B2B2B4 | 
[V:2] d4z2d2 | 
[V:3] d4B4 | 
[V:4] G,2G,2G,2G,2 | 
[V:1] A4z2A2 | 
[V:2] f2f2f2f2 | 
[V:3] c4d4 | 
[V:4] F,4D,4 | 
[V:1] B2B2B2B2 | 
[V:2] d4z2d2 | 
[V:3] B4z2B2 | 
[V:4] G,2G,2G,4 | 
[V:1] A4A4 | 
[V:2] f2f2f4- | 
[V:3] c2A2d3c | 
[V:4] F,3E,D,C,D,2- | 
[V:1] d2d2d4 | 
[V:2] f4d3e | 
[V:3] BAA4^G2 | 
[V:4] D,C,B,,A,,B,,4 | 
[V:1] c3BAGA2- | 
[V:2] f2e4f2- | 
[V:3] A2c3BAG | 
[V:4] A,,8 | 
[V:1] AGFEF4 | 
[V:2] fedcd4 | 
[V:3] (3F3GA2D4 | 
[V:4] z8 | 
[V:1] E8 |]  
[V:2] c8 |]  
[V:3] A8 |]  
[V:4] A,,8 |]  



